icon/checkmark-disabled.svg

<svg xmlns="http://www.w3.org/2000/svg" width="7" height="7" fill="none"><path fill="gray" fill-rule="evenodd" d="M7 0H6v1H5v1H4v1H3v1H2V3H1V2H0v3h1v1h1v1h1V6h1V5h1V4h1V3h1z" clip-rule="evenodd"/></svg>

<svg width="7" height="7" viewBox="0 0 7 7" fill="none" xmlns="http://www.w3.org/2000/svg">
<path fill-rule="evenodd" clip-rule="evenodd" d="M7 0H6V1H5V2H4V3H3V4H2V3H1V2H0V5H1V6H2V7H3V6H4V5H5V4H6V3H7V0Z" fill="#808080"/>
</svg>
